assets/replicate/mono.svg

<svg viewBox="0 0 24 24" xmlns="http://www.w3.org/2000/svg"><path d="m24 10.262v2.712h-9.518v11.026h-3.034v-13.738zm0-5.131v2.717h-15.245v16.152h-3.033v-18.869zm0-5.131v2.717h-20.966v21.283h-3.034v-24z"/></svg>

<svg xmlns="http://www.w3.org/2000/svg" viewBox="0 0 24 24"><path d="M24 10.262v2.712h-9.518V24h-3.034V10.262zm0-5.131v2.717H8.755V24H5.722V5.131zM24 0v2.717H3.034V24H0V0z"/></svg>
